build/category/CreditSolid.svg

<svg xmlns="http://www.w3.org/2000/svg" fill="none" viewBox="0 0 24 24" focusable="false"><path d="M0 0H24V24H0z"/><path fill="#74767B" fill-rule="evenodd" d="M8.78998 2.60001C8.78998 2.24103 8.49896 1.95001 8.13998 1.95001C7.78099 1.95001 7.48998 2.24103 7.48998 2.60001L7.48998 3.99002L7 3.99002C5.34 3.99002 4 5.33002 4 6.99002L4 17C4 18.66 5.34 20 7 20L17 20C18.66 20 20 18.66 20 17L20 6.99002C20 5.33002 18.65 3.99002 17 3.99002L16.5 3.99002L16.5 2.60001C16.5 2.24103 16.209 1.95001 15.85 1.95001C15.491 1.95001 15.2 2.24103 15.2 2.60001L15.2 3.99002L12.65 3.99002L12.65 2.60001C12.65 2.24103 12.359 1.95001 12 1.95001C11.641 1.95001 11.35 2.24103 11.35 2.60001L11.35 3.99002L8.78998 3.99002L8.78998 2.60001ZM11 9.5932C11 10.6978 10.1046 11.5932 9 11.5932C7.89543 11.5932 7 10.6978 7 9.5932C7 8.48863 7.89543 7.5932 9 7.5932C10.1046 7.5932 11 8.48863 11 9.5932ZM15.5028 8.4846C15.7575 8.73763 15.7588 9.14919 15.5058 9.40383L9.50211 15.4458C9.24908 15.7005 8.83752 15.7018 8.58288 15.4487C8.32823 15.1957 8.32692 14.7842 8.57995 14.5295L14.5836 8.48752C14.8366 8.23288 15.2482 8.23157 15.5028 8.4846ZM9 10.2932C9.3866 10.2932 9.7 9.9798 9.7 9.5932C9.7 9.2066 9.3866 8.8932 9 8.8932C8.6134 8.8932 8.3 9.2066 8.3 9.5932C8.3 9.9798 8.6134 10.2932 9 10.2932ZM17.0024 14.4068C17.0024 15.5114 16.107 16.4068 15.0024 16.4068C13.8978 16.4068 13.0024 15.5114 13.0024 14.4068C13.0024 13.3022 13.8978 12.4068 15.0024 12.4068C16.107 12.4068 17.0024 13.3022 17.0024 14.4068ZM15.0024 15.1068C15.389 15.1068 15.7024 14.7934 15.7024 14.4068C15.7024 14.0202 15.389 13.7068 15.0024 13.7068C14.6158 13.7068 14.3024 14.0202 14.3024 14.4068C14.3024 14.7934 14.6158 15.1068 15.0024 15.1068Z"/></svg>

<svg xmlns="http://www.w3.org/2000/svg" fill="none" viewBox="0 0 24 24" focusable="false"><path fill="#74767B" fill-rule="evenodd" d="M8.79 2.6a.655.655 0 0 0-1.31 0v1.38H7c-1.67 0-3 1.35-3 3V17c0 1.66 1.33 3 3 3h10c1.66 0 3-1.34 3-3V6.98c0-1.65-1.36-3-3-3h-.5V2.6c0-.36-.3-.65-.65-.65-.36 0-.65.29-.65.65v1.38h-2.56V2.6c0-.36-.29-.65-.64-.65-.36 0-.65.29-.65.65v1.38H8.79zM11 9.59a2 2 0 1 1-4 0c0-1.11.89-2 2-2a2 2 0 0 1 2 2m4.5-1.11c.25.25.25.66 0 .92l-6 6.04a.64.64 0 0 1-.92 0 .64.64 0 0 1 0-.92l6-6.04c.25-.25.66-.25.92 0M9 10.29c.38 0 .7-.32.7-.7 0-.39-.32-.7-.7-.7-.39 0-.71.31-.71.7 0 .38.32.7.71.7m8 4.11a2 2 0 0 1-2 2c-1.11 0-2-.89-2-2a2 2 0 1 1 4 0m-2 .7c.38 0 .7-.31.7-.7 0-.38-.32-.7-.7-.7-.39 0-.7.32-.7.7 0 .39.31.7.7.7"/></svg>
